icon/cg/border-bottom.svg

<svg width="24" height="24" fill="none" xmlns="http://www.w3.org/2000/svg"><path d="M8 8h8v7h3V5H5v10h3V8Z" fill="currentColor" fill-opacity=".3"/><path d="M5 17h14v3H5v-3Z" fill="currentColor"/></svg>

<svg viewBox="0 0 24 24" fill="none" xmlns="http://www.w3.org/2000/svg" height="1em" width="1em">
  <path d="M8 8H16V15H19V5H5V15H8V8Z" fill="currentColor" fill-opacity="0.3"/>
  <path d="M5 17H19V20H5V17Z" fill="currentColor"/>
</svg>
